icons/image-camera-2.svg

<svg fill="none" viewBox="0 0 24 24"><path fill="currentColor" d="M3.4 18.1v-12.2h-2v12.2zm1.4-13.6h14.4v-2h-14.4zm15.8 1.4v12.2h2v-12.2zm0 12.2a1.4 1.4 0 0 1-1.4 1.4v2a3.4 3.4 0 0 0 3.4-3.4zm-1.4-13.6a1.4 1.4 0 0 1 1.4 1.4h2a3.4 3.4 0 0 0-3.4-3.4zm-15.8 1.4a1.4 1.4 0 0 1 1.4-1.4v-2a3.4 3.4 0 0 0-3.4 3.4zm1.4 13.6a1.4 1.4 0 0 1-1.4-1.4h-2a3.4 3.4 0 0 0 3.4 3.4zm9.8-7.5a2.6 2.6 0 0 1-2.6 2.6v2a4.6 4.6 0 0 0 4.6-4.6zm-2.6 2.6a2.6 2.6 0 0 1-2.6-2.6h-2a4.6 4.6 0 0 0 4.6 4.6zm-2.6-2.6a2.6 2.6 0 0 1 2.6-2.6v-2a4.6 4.6 0 0 0-4.6 4.6zm2.6-2.6a2.6 2.6 0 0 1 2.6 2.6h2a4.6 4.6 0 0 0-4.6-4.6zm7.2 10.1h-14.4v2h14.4z"/></svg>

<svg fill="none" viewBox="0 0 24 24"><path fill="currentColor" d="M3.4 18.1V6h-2v12zM4.8 4.5h14.4v-2H4.8zm15.8 1.4V18h2V6zm0 12.2a1.4 1.4 0 0 1-1.4 1.4v2a3.4 3.4 0 0 0 3.4-3.4zM19.2 4.5a1.4 1.4 0 0 1 1.4 1.4h2a3.4 3.4 0 0 0-3.4-3.4zM3.4 5.9a1.4 1.4 0 0 1 1.4-1.4v-2a3.4 3.4 0 0 0-3.4 3.4zm1.4 13.6a1.4 1.4 0 0 1-1.4-1.4h-2a3.4 3.4 0 0 0 3.4 3.4zm9.8-7.5a2.6 2.6 0 0 1-2.6 2.6v2a4.6 4.6 0 0 0 4.6-4.6zM12 14.6A2.6 2.6 0 0 1 9.4 12h-2a4.6 4.6 0 0 0 4.6 4.6zM9.4 12A2.6 2.6 0 0 1 12 9.4v-2A4.6 4.6 0 0 0 7.4 12zM12 9.4a2.6 2.6 0 0 1 2.6 2.6h2A4.6 4.6 0 0 0 12 7.4zm7.2 10.1H4.8v2h14.4z"/></svg>
